logos/galliumos.svg

<svg preserveAspectRatio="xMidYMid" viewBox="0 0 256 256" xmlns="http://www.w3.org/2000/svg">
  <path fill="#68A5C6" d="M169.533 127.998a39.8 39.8 0 0 1-.051 1.99c-.003.057-.011.116-.013.174l.061.291L256 255.884v.114-16.312l-90.75-133c-.341-.602-1.852-.739-2.227-1.318l-.111-.179-.004.003a34.532 34.532 0 0 0-4.855-5.836c7.105 7.452 11.48 17.532 11.48 28.642Z"/>
  <path fill="#98B7D4" d="M128.001 169.533c-.67 0-1.33-.018-1.992-.05l-.171-.014-4.837 1.883L3.833 251.187 0 256.001h14.127l4.707-1.981 126.5-85.5 3.526-4.419a33.865 33.865 0 0 0 1.772-1.079l.18-.109-.002-.006a34.38 34.38 0 0 0 5.835-4.853c-7.452 7.108-17.533 11.479-28.644 11.479Z"/>
  <path fill="#347294" d="m0 14.127 1.666 5.058 86.335 127.667 3.899 2.008a35.73 35.73 0 0 0 1.079 1.776l.109.179.006-.003a34.505 34.505 0 0 0 4.853 5.836c-7.108-7.451-11.479-17.533-11.479-28.644 0-.669.018-1.331.05-1.991l.014-.171-1.365-4.822-81-118.667L0 0v14.127Z"/>
  <path fill="#5089AF" d="m241.874.001-5.04 1.852L110 87.353l-2.86 4.55c-.601.341-1.193.699-1.772 1.076l-.179.11.002.004a34.44 34.44 0 0 0-5.835 4.855c7.451-7.108 17.533-11.48 28.644-11.48.669 0 1.33.018 1.991.051.056.003.115.01.171.013L134 85.519 252.167 4.686 256 .001h-14.126Z"/>
  <path fill="#367BA0" d="m0 256.001 125.836-86.526c-10.097-.521-19.236-4.644-26.165-11.112a41.144 41.144 0 0 1-1.726-1.719 34.34 34.34 0 0 1-4.854-5.834l-.005.002-.11-.18a35.27 35.27 0 0 1-1.078-1.772L0 14.127v241.874Z"/>
  <path fill="#5495BF" d="m0 0 86.529 125.836c.52-10.097 4.644-19.235 11.109-26.164a42.393 42.393 0 0 1 1.718-1.727 34.373 34.373 0 0 1 5.835-4.853l-.002-.006.179-.11c.58-.377 1.171-.735 1.772-1.078L241.874 0H0Z"/>
  <path fill="#71B6DB" d="M130.165 86.529c10.097.52 19.235 4.644 26.164 11.111a43.071 43.071 0 0 1 1.727 1.719 34.256 34.256 0 0 1 4.853 5.835l.006-.003.11.18c.377.578.735 1.17 1.078 1.772l91.898 134.734V0L130.165 86.529Z"/>
  <path fill="#A5C8E8" d="M158.363 156.33a41.735 41.735 0 0 1-1.718 1.726 34.315 34.315 0 0 1-5.836 4.854l.003.005-.18.11c-.577.377-1.17.735-1.772 1.078L14.126 256.001H256l-86.526-125.836c-.519 10.097-4.644 19.236-11.111 26.165Z"/>
</svg>

<?xml version="1.0" encoding="UTF-8"?>
<svg width="256px" height="256px" viewBox="0 0 256 256" version="1.1" xmlns="http://www.w3.org/2000/svg" xmlns:xlink="http://www.w3.org/1999/xlink" preserveAspectRatio="xMidYMid">
	<g>
		<path d="M169.533,127.998 C169.533,128.667 169.515,129.327 169.482,129.988 C169.479,130.045 169.471,130.104 169.469,130.162 L169.53,130.453 L256,255.884 L256,255.998 L256,241.875 L256,239.686 L165.25,106.686 C164.909,106.084 163.398,105.947 163.023,105.368 L162.912,105.189 L162.908,105.192 C161.508,103.068 159.876,101.116 158.053,99.356 C165.158,106.808 169.533,116.888 169.533,127.998 L169.533,127.998 Z" fill="#68A5C6"></path>
		<path d="M128.001,169.533 C127.331,169.533 126.671,169.515 126.009,169.483 C125.954,169.479 125.895,169.473 125.838,169.469 L121.001,171.352 L3.833,251.187 L0,256.001 L14.127,256.001 L18.834,254.02 L145.334,168.52 L148.86,164.101 C149.462,163.758 150.054,163.4 150.632,163.022 L150.812,162.913 L150.81,162.907 C152.933,161.509 154.887,159.877 156.645,158.054 C149.193,165.162 139.112,169.533 128.001,169.533 L128.001,169.533 Z" fill="#98B7D4"></path>
		<path d="M0,14.127 L1.666,19.185 L88.001,146.852 L91.9,148.86 C92.243,149.462 92.601,150.054 92.979,150.636 L93.088,150.815 L93.094,150.812 C94.492,152.935 96.124,154.887 97.947,156.648 C90.839,149.197 86.468,139.115 86.468,128.004 C86.468,127.335 86.486,126.673 86.518,126.013 C86.522,125.957 86.528,125.897 86.532,125.842 L85.167,121.02 L4.167,2.353 L0,-5.68434189e-14 L0,14.127 L0,14.127 Z" fill="#347294"></path>
		<path d="M241.874,0.001 L236.834,1.853 L110,87.353 L107.14,91.903 C106.539,92.244 105.947,92.602 105.368,92.979 L105.189,93.089 L105.191,93.093 C103.068,94.493 101.114,96.124 99.356,97.948 C106.807,90.84 116.889,86.468 128,86.468 C128.669,86.468 129.33,86.486 129.991,86.519 C130.047,86.522 130.106,86.529 130.162,86.532 L134,85.519 L252.167,4.686 L256,0.001 L241.874,0.001 L241.874,0.001 Z" fill="#5089AF"></path>
		<path d="M0,256.001 L125.836,169.475 C115.739,168.954 106.6,164.831 99.671,158.363 C99.077,157.81 98.506,157.232 97.945,156.644 C96.121,154.887 94.49,152.933 93.091,150.81 L93.086,150.812 L92.976,150.632 C92.6,150.054 92.241,149.462 91.898,148.86 L0,14.127 L0,256.001 L0,256.001 Z" fill="#367BA0"></path>
		<path d="M0,-5.68434189e-14 L86.529,125.836 C87.049,115.739 91.173,106.601 97.638,99.672 C98.191,99.078 98.77,98.506 99.356,97.945 C101.115,96.121 103.068,94.49 105.191,93.092 L105.189,93.086 L105.368,92.976 C105.948,92.599 106.539,92.241 107.14,91.898 L241.874,-5.68434189e-14 L0,-5.68434189e-14 L0,-5.68434189e-14 Z" fill="#5495BF"></path>
		<path d="M130.165,86.529 C140.262,87.049 149.4,91.173 156.329,97.64 C156.923,98.195 157.495,98.772 158.056,99.359 C159.88,101.116 161.511,103.07 162.909,105.194 L162.915,105.191 L163.025,105.371 C163.402,105.949 163.76,106.541 164.103,107.143 L256.001,241.877 L256.001,-5.68434189e-14 L130.165,86.529 L130.165,86.529 Z" fill="#71B6DB"></path>
		<path d="M158.363,156.33 C157.809,156.924 157.233,157.495 156.645,158.056 C154.888,159.88 152.933,161.511 150.809,162.91 L150.812,162.915 L150.632,163.025 C150.055,163.402 149.462,163.76 148.86,164.103 L14.126,256.001 L256,256.001 L169.474,130.165 C168.955,140.262 164.83,149.401 158.363,156.33 L158.363,156.33 Z" fill="#A5C8E8"></path>
	</g>
</svg>
